X: 28811
T: My Mother's
R: jig
M: 6/8
K: Gmajor
|:e/f/|"G"g2G "D"F2A|"G"G2B "D7"AcA|"G"BdB "C"c2e|"D"d2f faf|
"G"g2G "D"F2A|"G"G2B "D7"AcA|"G"BdB "C"c2 e|"D"def g2:|
|:f|"G"g2b "D"f2a|"C"efg "G"d2B|"C"c2e "G"d2B|"D7"ABc "G"B2d|
"G"gbg "D"faf|"C"ege "G"dcB|"C"cde "D7"d2B|"G"G2[Bg] [B2g2]:|
|:e|"G"d2g "C"e2g|"G"d2g "C"e3|"G"d^cd B2G|"D"A2G FED|
"G"d2g "C"e2g|"G"d2g "C"c3|"D"ddd dba|"D"gfe d2:|

